svg/hvac.svg

<svg xmlns="http://www.w3.org/2000/svg" viewBox="0 0 24 24"><path d="M8.58 14c-.28-.45-.47-.97-.52-1.5h7.88c-.05.53-.24 1.05-.47 1.5zM12 16c-1.03 0-1.92-.39-2.62-1h5.25c-.71.61-1.6 1-2.63 1m0-8c1.03 0 1.92.39 2.63 1H9.38c.7-.61 1.59-1 2.62-1m-3.42 2h6.84c.28.45.47.97.52 1.5H8.06c.05-.53.24-1.05.52-1.5M3 3v18h18V3zm9 15c-3.33 0-6-2.67-6-6s2.67-6 6-6 6 2.67 6 6-2.67 6-6 6"/></svg>

<?xml version="1.0" encoding="UTF-8"?><!DOCTYPE svg PUBLIC "-//W3C//DTD SVG 1.1//EN" "http://www.w3.org/Graphics/SVG/1.1/DTD/svg11.dtd"><svg xmlns="http://www.w3.org/2000/svg" xmlns:xlink="http://www.w3.org/1999/xlink" version="1.1" id="mdi-hvac" width="24" height="24" viewBox="0 0 24 24"><path d="M8.58 14C8.3 13.55 8.11 13.03 8.06 12.5H15.94C15.89 13.03 15.7 13.55 15.47 14H8.58M12 16C10.97 16 10.08 15.61 9.38 15H14.63C13.92 15.61 13.03 16 12 16M12 8C13.03 8 13.92 8.39 14.63 9H9.38C10.08 8.39 10.97 8 12 8M8.58 10H15.42C15.7 10.45 15.89 10.97 15.94 11.5H8.06C8.11 10.97 8.3 10.45 8.58 10M3 3V21H21V3H3M12 18C8.67 18 6 15.33 6 12S8.67 6 12 6 18 8.67 18 12 15.33 18 12 18Z" /></svg>
